; generated by Slic3r 1.3.1-dev on 2019-02-05 at 16:13:30

; external perimeters extrusion width = 0.30mm (1.80mm^3/s)
; perimeters extrusion width = 0.30mm (1.80mm^3/s)
; infill extrusion width = 0.60mm (3.90mm^3/s)
; solid infill extrusion width = 0.60mm (3.90mm^3/s)
; top infill extrusion width = 0.45mm (2.85mm^3/s)
; support material extrusion width = 0.60mm (3.90mm^3/s)

M107 ; disable fan
M190 S100 ; set bed temperature and wait for it to be reached
M104 S250 ; set temperature
G28 ; home all axes
G1 Z5 F5000 ; lift nozzle

; Filament gcode

M109 S250 ; set temperature and wait for it to be reached
G21 ; set units to millimeters
G90 ; use absolute coordinates
M82 ; use absolute distances for extrusion
G92 E0 ; reset extrusion distance
G1 Z0.300 F6000.000 ; move to next layer (0)
G1 E-2.00000 F9000.00000 ; retract extruder 0
G92 E0 ; reset extrusion distance
G1 X93.878 Y77.723 F6000.000 ; move to first skirt point
G1 E2.00000 F9000.00000 ; unretract extruder 0
G1 F1500
G1 X95.686 Y75.544 E2.18915 ; skirt
G1 X98.029 Y73.954 E2.37831 ; skirt
G1 X100.722 Y73.079 E2.56746 ; skirt
G1 X102.456 Y72.929 E2.68375 ; skirt
G1 X106.456 Y72.929 E2.95097 ; skirt
G1 X109.260 Y73.327 E3.14012 ; skirt
G1 X111.841 Y74.489 E3.32928 ; skirt
G1 X113.997 Y76.325 E3.51843 ; skirt
G1 X115.557 Y78.688 E3.70759 ; skirt
G1 X116.398 Y81.391 E3.89674 ; skirt
G1 X116.527 Y83.000 E4.00456 ; skirt
G1 X116.527 Y117.000 E6.27595 ; skirt
G1 X116.129 Y119.803 E6.46510 ; skirt
G1 X114.967 Y122.385 E6.65426 ; skirt
G1 X113.132 Y124.541 E6.84341 ; skirt
G1 X110.769 Y126.101 E7.03257 ; skirt
G1 X108.065 Y126.942 E7.22172 ; skirt
G1 X106.456 Y127.071 E7.32954 ; skirt
G1 X102.456 Y127.071 E7.59676 ; skirt
G1 X99.653 Y126.673 E7.78592 ; skirt
G1 X97.071 Y125.511 E7.97507 ; skirt
G1 X94.915 Y123.675 E8.16423 ; skirt
G1 X93.878 Y122.277 E8.28051 ; skirt
G1 X86.081 Y109.598 E9.27489 ; skirt
G1 X85.722 Y108.957 E9.32397 ; skirt
G1 X85.425 Y108.378 E9.36742 ; skirt
G1 X85.114 Y107.713 E9.41651 ; skirt
G1 X84.859 Y107.113 E9.46003 ; skirt
G1 X84.597 Y106.428 E9.50902 ; skirt
G1 X84.388 Y105.813 E9.55246 ; skirt
G1 X84.176 Y105.109 E9.60155 ; skirt
G1 X84.012 Y104.480 E9.64499 ; skirt
G1 X83.852 Y103.763 E9.69407 ; skirt
G1 X83.736 Y103.130 E9.73708 ; skirt
G1 X83.628 Y102.396 E9.78660 ; skirt
G1 X83.556 Y101.748 E9.83017 ; skirt
G1 X83.503 Y101.017 E9.87913 ; skirt
G1 X83.479 Y100.367 E9.92257 ; skirt
G1 X83.479 Y99.634 E9.97153 ; skirt
G1 X83.503 Y98.983 E10.01508 ; skirt
G1 X83.557 Y98.250 E10.06417 ; skirt
G1 X83.628 Y97.604 E10.10761 ; skirt
G1 X83.734 Y96.877 E10.15670 ; skirt
G1 X83.853 Y96.236 E10.20020 ; skirt
G1 X84.012 Y95.520 E10.24922 ; skirt
G1 X84.176 Y94.891 E10.29266 ; skirt
G1 X84.388 Y94.187 E10.34175 ; skirt
G1 X84.597 Y93.572 E10.38518 ; skirt
G1 X84.859 Y92.885 E10.43426 ; skirt
G1 X85.114 Y92.287 E10.47770 ; skirt
G1 X85.425 Y91.621 E10.52680 ; skirt
G1 X85.722 Y91.042 E10.57027 ; skirt
G1 X86.081 Y90.402 E10.61931 ; skirt
G1 X93.847 Y77.774 E11.60969 ; skirt
G1 X94.334 Y78.003 F6000.000 ; move to first skirt point
G1 F1500
G1 X96.102 Y75.890 E11.79372 ; skirt
G1 X98.399 Y74.370 E11.97775 ; skirt
G1 X101.035 Y73.571 E12.16178 ; skirt
G1 X102.456 Y73.464 E12.25697 ; skirt
G1 X106.456 Y73.464 E12.52419 ; skirt
G1 X109.182 Y73.862 E12.70822 ; skirt
G1 X111.680 Y75.023 E12.89225 ; skirt
G1 X113.743 Y76.849 E13.07628 ; skirt
G1 X115.197 Y79.189 E13.26031 ; skirt
G1 X115.992 Y83.000 E13.52041 ; skirt
G1 X115.992 Y117.000 E15.79180 ; skirt
G1 X115.594 Y119.726 E15.97583 ; skirt
G1 X114.433 Y122.224 E16.15986 ; skirt
G1 X112.607 Y124.287 E16.34389 ; skirt
G1 X110.268 Y125.741 E16.52792 ; skirt
G1 X106.456 Y126.536 E16.78802 ; skirt
G1 X102.456 Y126.536 E17.05524 ; skirt
G1 X99.730 Y126.138 E17.23927 ; skirt
G1 X97.232 Y124.977 E17.42330 ; skirt
G1 X95.170 Y123.151 E17.60733 ; skirt
G1 X94.334 Y121.997 E17.70252 ; skirt
G1 X86.539 Y109.319 E18.69675 ; skirt
G1 X85.905 Y108.140 E18.78621 ; skirt
G1 X85.607 Y107.504 E18.83313 ; skirt
G1 X85.352 Y106.904 E18.87665 ; skirt
G1 X84.895 Y105.640 E18.96646 ; skirt
G1 X84.530 Y104.345 E19.05636 ; skirt
G1 X84.261 Y103.026 E19.14630 ; skirt
G1 X84.089 Y101.690 E19.23628 ; skirt
G1 X84.038 Y100.998 E19.28264 ; skirt
G1 X84.014 Y99.654 E19.37242 ; skirt
G1 X84.089 Y98.309 E19.46243 ; skirt
G1 X84.261 Y96.974 E19.55233 ; skirt
G1 X84.379 Y96.334 E19.59583 ; skirt
G1 X84.694 Y95.026 E19.68567 ; skirt
G1 X85.104 Y93.745 E19.77557 ; skirt
G1 X85.607 Y92.496 E19.86546 ; skirt
G1 X85.902 Y91.866 E19.91194 ; skirt
G1 X86.539 Y90.681 E20.00184 ; skirt
G1 X94.303 Y78.055 E20.99206 ; skirt
G1 E18.99206 F9000.00000 ; retract extruder 0
G92 E0 ; reset extrusion distance
G1 X98.239 Y87.451 F6000.000 ; move to first brim point
G1 E2.00000 F9000.00000 ; unretract extruder 0
G1 F1500
G1 X98.239 Y81.253 E2.42949 ; brim
G1 X100.709 Y78.783 E2.67157 ; brim
G1 X108.203 Y78.783 E3.19081 ; brim
G1 X110.673 Y81.253 E3.43289 ; brim
G1 X110.673 Y95.497 E4.41986 ; brim
G1 X108.203 Y97.967 E4.66194 ; brim
G1 X102.543 Y97.967 E5.05416 ; brim
G1 X102.122 Y97.999 E5.08341 ; brim
G1 X101.788 Y98.084 E5.10727 ; brim
G1 X101.673 Y98.239 E5.12061 ; brim
G1 X101.673 Y101.761 E5.36468 ; brim
G1 X101.788 Y101.916 E5.37802 ; brim
G1 X102.122 Y102.001 E5.40190 ; brim
G1 X102.546 Y102.033 E5.43134 ; brim
G1 X108.203 Y102.033 E5.82335 ; brim
G1 X110.673 Y104.503 E6.06543 ; brim
G1 X110.673 Y118.747 E7.05240 ; brim
G1 X108.203 Y121.217 E7.29448 ; brim
G1 X100.709 Y121.217 E7.81372 ; brim
G1 X98.239 Y118.747 E8.05580 ; brim
G1 X98.239 Y112.549 E8.48529 ; brim
G1 X98.136 Y112.399 E8.49786 ; brim
G1 X97.301 Y112.075 E8.55994 ; brim
G1 X96.351 Y111.623 E8.63282 ; brim
G1 X95.614 Y111.206 E8.69149 ; brim
G1 X94.867 Y110.714 E8.75347 ; brim
G1 X93.988 Y110.034 E8.83051 ; brim
G1 X93.389 Y109.497 E8.88624 ; brim
G1 X92.721 Y108.810 E8.95262 ; brim
G1 X92.105 Y108.077 E9.01900 ; brim
G1 X91.544 Y107.301 E9.08533 ; brim
G1 X90.965 Y106.352 E9.16239 ; brim
G1 X90.532 Y105.497 E9.22876 ; brim
G1 X90.218 Y104.756 E9.28451 ; brim
G1 X89.860 Y103.705 E9.36151 ; brim
G1 X89.657 Y102.927 E9.41722 ; brim
G1 X89.493 Y102.068 E9.47783 ; brim
G1 X89.367 Y101.033 E9.55001 ; brim
G1 X89.327 Y99.924 E9.62696 ; brim
G1 X89.356 Y99.120 E9.68271 ; brim
G1 X89.455 Y98.167 E9.74908 ; brim
G1 X89.623 Y97.223 E9.81548 ; brim
G1 X89.904 Y96.148 E9.89249 ; brim
G1 X90.163 Y95.387 E9.94821 ; brim
G1 X90.532 Y94.503 E10.01456 ; brim
G1 X90.965 Y93.648 E10.08097 ; brim
G1 X91.543 Y92.699 E10.15799 ; brim
G1 X92.105 Y91.923 E10.22437 ; brim
G1 X92.721 Y91.190 E10.29074 ; brim
G1 X93.279 Y90.610 E10.34647 ; brim
G1 X93.988 Y89.966 E10.41282 ; brim
G1 X94.867 Y89.286 E10.48986 ; brim
G1 X95.677 Y88.756 E10.55694 ; brim
G1 X96.439 Y88.331 E10.61737 ; brim
G1 X97.160 Y87.988 E10.67274 ; brim
G1 X98.136 Y87.601 E10.74548 ; brim
G1 X98.205 Y87.501 E10.75389 ; brim
G1 X98.795 Y87.857 F6000.000 ; move to first brim point
G1 F1500
G1 X98.795 Y81.483 E11.19552 ; brim
G1 X100.940 Y79.338 E11.40571 ; brim
G1 X107.973 Y79.338 E11.89306 ; brim
G1 X110.118 Y81.483 E12.10325 ; brim
G1 X110.118 Y95.267 E13.05833 ; brim
G1 X107.973 Y97.412 E13.26852 ; brim
G1 X102.244 Y97.424 E13.66547 ; brim
G1 X101.815 Y97.496 E13.69561 ; brim
G1 X101.404 Y97.639 E13.72577 ; brim
G1 X101.205 Y97.738 E13.74118 ; brim
G1 X101.118 Y97.879 E13.75267 ; brim
G1 X101.118 Y102.121 E14.04663 ; brim
G1 X101.205 Y102.262 E14.05811 ; brim
G1 X101.404 Y102.361 E14.07355 ; brim
G1 X101.804 Y102.501 E14.10286 ; brim
G1 X102.245 Y102.576 E14.13387 ; brim
G1 X107.973 Y102.588 E14.53078 ; brim
G1 X110.118 Y104.733 E14.74097 ; brim
G1 X110.118 Y118.517 E15.69605 ; brim
G1 X107.973 Y120.662 E15.90624 ; brim
G1 X100.940 Y120.662 E16.39359 ; brim
G1 X98.795 Y118.517 E16.60378 ; brim
G1 X98.795 Y112.143 E17.04541 ; brim
G1 X98.680 Y111.988 E17.05877 ; brim
G1 X98.283 Y111.860 E17.08769 ; brim
G1 X97.437 Y111.528 E17.15060 ; brim
G1 X96.692 Y111.175 E17.20773 ; brim
G1 X95.903 Y110.732 E17.27049 ; brim
G1 X95.183 Y110.257 E17.33025 ; brim
G1 X94.454 Y109.699 E17.39381 ; brim
G1 X93.672 Y108.997 E17.46665 ; brim
G1 X93.128 Y108.432 E17.52097 ; brim
G1 X92.539 Y107.730 E17.58454 ; brim
G1 X92.002 Y106.987 E17.64807 ; brim
G1 X91.520 Y106.206 E17.71165 ; brim
G1 X91.040 Y105.271 E17.78448 ; brim
G1 X90.686 Y104.424 E17.84805 ; brim
G1 X90.395 Y103.554 E17.91160 ; brim
G1 X90.197 Y102.796 E17.96592 ; brim
G1 X90.039 Y101.967 E18.02441 ; brim
G1 X89.920 Y100.983 E18.09308 ; brim
G1 X89.882 Y99.934 E18.16583 ; brim
G1 X89.911 Y99.150 E18.22017 ; brim
G1 X90.006 Y98.238 E18.28373 ; brim
G1 X90.168 Y97.334 E18.34732 ; brim
G1 X90.433 Y96.318 E18.42012 ; brim
G1 X90.686 Y95.576 E18.47443 ; brim
G1 X91.040 Y94.730 E18.53798 ; brim
G1 X91.455 Y93.911 E18.60158 ; brim
G1 X92.001 Y93.014 E18.67438 ; brim
G1 X92.457 Y92.376 E18.72871 ; brim
G1 X92.993 Y91.723 E18.78719 ; brim
G1 X93.672 Y91.003 E18.85583 ; brim
G1 X94.454 Y90.301 E18.92864 ; brim
G1 X95.182 Y89.743 E18.99220 ; brim
G1 X95.902 Y89.269 E19.05195 ; brim
G1 X96.592 Y88.879 E19.10681 ; brim
G1 X97.558 Y88.419 E19.18093 ; brim
G1 X98.328 Y88.123 E19.23812 ; brim
G1 X98.680 Y88.012 E19.26369 ; brim
G1 X98.759 Y87.905 E19.27290 ; brim
G1 X99.350 Y88.269 F6000.000 ; move to first brim point
G1 F1500
G1 X99.350 Y81.713 E19.72715 ; brim
G1 X101.170 Y79.894 E19.90545 ; brim
G1 X107.743 Y79.894 E20.36091 ; brim
G1 X109.562 Y81.713 E20.53921 ; brim
G1 X109.562 Y95.037 E21.46240 ; brim
G1 X107.743 Y96.856 E21.64069 ; brim
G1 X102.525 Y96.856 E22.00223 ; brim
G1 X102.185 Y96.871 E22.02582 ; brim
G1 X101.664 Y96.961 E22.06245 ; brim
G1 X101.177 Y97.131 E22.09825 ; brim
G1 X100.703 Y97.394 E22.13574 ; brim
G1 X100.625 Y97.451 E22.14244 ; brim
G1 X100.562 Y97.575 E22.15210 ; brim
G1 X100.562 Y102.425 E22.48815 ; brim
G1 X100.625 Y102.549 E22.49781 ; brim
G1 X100.940 Y102.751 E22.52370 ; brim
G1 X101.411 Y102.962 E22.55950 ; brim
G1 X101.676 Y103.043 E22.57869 ; brim
G1 X102.198 Y103.130 E22.61534 ; brim
G1 X102.522 Y103.144 E22.63782 ; brim
G1 X107.743 Y103.144 E22.99957 ; brim
G1 X109.562 Y104.963 E23.17787 ; brim
G1 X109.562 Y118.287 E24.10106 ; brim
G1 X107.743 Y120.106 E24.27935 ; brim
G1 X101.170 Y120.106 E24.73482 ; brim
G1 X99.350 Y118.287 E24.91312 ; brim
G1 X99.350 Y111.731 E25.36737 ; brim
G1 X99.235 Y111.576 E25.38073 ; brim
G1 X98.561 Y111.370 E25.42958 ; brim
G1 X97.738 Y111.054 E25.49068 ; brim
G1 X96.947 Y110.681 E25.55127 ; brim
G1 X96.191 Y110.257 E25.61133 ; brim
G1 X95.498 Y109.800 E25.66886 ; brim
G1 X94.802 Y109.266 E25.72961 ; brim
G1 X94.065 Y108.605 E25.79823 ; brim
G1 X93.536 Y108.054 E25.85115 ; brim
G1 X92.972 Y107.383 E25.91191 ; brim
G1 X92.460 Y106.672 E25.97263 ; brim
G1 X92.000 Y105.925 E26.03341 ; brim
G1 X91.547 Y105.044 E26.10202 ; brim
G1 X91.209 Y104.235 E26.16278 ; brim
G1 X90.930 Y103.404 E26.22353 ; brim
G1 X90.737 Y102.665 E26.27644 ; brim
G1 X90.585 Y101.866 E26.33283 ; brim
G1 X90.474 Y100.932 E26.39798 ; brim
G1 X90.438 Y99.944 E26.46652 ; brim
G1 X90.466 Y99.180 E26.51946 ; brim
G1 X90.557 Y98.308 E26.58021 ; brim
G1 X90.712 Y97.445 E26.64099 ; brim
G1 X90.962 Y96.487 E26.70958 ; brim
G1 X91.209 Y95.765 E26.76248 ; brim
G1 X91.547 Y94.956 E26.82322 ; brim
G1 X91.944 Y94.174 E26.88401 ; brim
G1 X92.459 Y93.328 E26.95261 ; brim
G1 X92.903 Y92.707 E27.00552 ; brim
G1 X93.420 Y92.079 E27.06190 ; brim
G1 X94.065 Y91.395 E27.12703 ; brim
G1 X94.802 Y90.734 E27.19562 ; brim
G1 X95.406 Y90.267 E27.24853 ; brim
G1 X96.121 Y89.787 E27.30821 ; brim
G1 X96.901 Y89.343 E27.37040 ; brim
G1 X97.839 Y88.905 E27.44209 ; brim
G1 X98.561 Y88.630 E27.49566 ; brim
G1 X99.235 Y88.424 E27.54450 ; brim
G1 X99.314 Y88.317 E27.55371 ; brim
G1 X99.906 Y88.699 F6000.000 ; move to first brim point
G1 F1500
G1 X99.906 Y81.944 E28.02181 ; brim
G1 X101.400 Y80.450 E28.16822 ; brim
G1 X107.513 Y80.450 E28.59179 ; brim
G1 X109.007 Y81.944 E28.73820 ; brim
G1 X109.007 Y94.806 E29.62950 ; brim
G1 X107.513 Y96.300 E29.77590 ; brim
G1 X102.514 Y96.300 E30.12230 ; brim
G1 X102.151 Y96.316 E30.14748 ; brim
G1 X101.842 Y96.354 E30.16904 ; brim
G1 X101.537 Y96.419 E30.19063 ; brim
G1 X101.239 Y96.509 E30.21222 ; brim
G1 X100.949 Y96.624 E30.23381 ; brim
G1 X100.670 Y96.763 E30.25540 ; brim
G1 X100.394 Y96.932 E30.27783 ; brim
G1 X100.143 Y97.116 E30.29942 ; brim
G1 X100.059 Y97.189 E30.30711 ; brim
G1 X100.007 Y97.304 E30.31588 ; brim
G1 X100.007 Y102.696 E30.68947 ; brim
G1 X100.059 Y102.811 E30.69823 ; brim
G1 X100.404 Y103.075 E30.72837 ; brim
G1 X100.670 Y103.237 E30.74995 ; brim
G1 X100.949 Y103.376 E30.77154 ; brim
G1 X101.227 Y103.487 E30.79228 ; brim
G1 X101.525 Y103.578 E30.81386 ; brim
G1 X101.830 Y103.644 E30.83545 ; brim
G1 X102.139 Y103.683 E30.85704 ; brim
G1 X102.510 Y103.700 E30.88281 ; brim
G1 X107.513 Y103.700 E31.22943 ; brim
G1 X109.007 Y105.194 E31.37583 ; brim
G1 X109.007 Y118.056 E32.26713 ; brim
G1 X107.513 Y119.550 E32.41354 ; brim
G1 X101.400 Y119.550 E32.83711 ; brim
G1 X99.906 Y118.056 E32.98352 ; brim
G1 X99.906 Y111.301 E33.45162 ; brim
G1 X99.778 Y111.141 E33.46581 ; brim
G1 X99.487 Y111.071 E33.48653 ; brim
G1 X98.773 Y110.855 E33.53825 ; brim
G1 X97.984 Y110.554 E33.59675 ; brim
G1 X97.226 Y110.200 E33.65473 ; brim
G1 X96.551 Y109.824 E33.70827 ; brim
G1 X95.738 Y109.288 E33.77573 ; brim
G1 X95.079 Y108.773 E33.83368 ; brim
G1 X94.459 Y108.212 E33.89163 ; brim
G1 X93.881 Y107.607 E33.94958 ; brim
G1 X93.349 Y106.962 E34.00753 ; brim
G1 X92.866 Y106.279 E34.06547 ; brim
G1 X92.434 Y105.563 E34.12342 ; brim
G1 X92.055 Y104.818 E34.18137 ; brim
G1 X91.764 Y104.133 E34.23289 ; brim
G1 X91.492 Y103.343 E34.29082 ; brim
G1 X91.277 Y102.535 E34.34877 ; brim
G1 X91.122 Y101.713 E34.40673 ; brim
G1 X91.020 Y100.789 E34.47113 ; brim
G1 X90.993 Y99.954 E34.52904 ; brim
G1 X91.020 Y99.211 E34.58057 ; brim
G1 X91.122 Y98.287 E34.64496 ; brim
G1 X91.257 Y97.556 E34.69648 ; brim
G1 X91.465 Y96.746 E34.75441 ; brim
G1 X91.731 Y95.953 E34.81236 ; brim
G1 X92.094 Y95.098 E34.87675 ; brim
G1 X92.434 Y94.436 E34.92827 ; brim
G1 X92.866 Y93.721 E34.98620 ; brim
G1 X93.406 Y92.964 E35.05060 ; brim
G1 X93.881 Y92.393 E35.10211 ; brim
G1 X94.422 Y91.826 E35.15638 ; brim
G1 X95.079 Y91.227 E35.21799 ; brim
G1 X95.814 Y90.658 E35.28239 ; brim
G1 X96.479 Y90.218 E35.33767 ; brim
G1 X97.286 Y89.771 E35.40159 ; brim
G1 X97.956 Y89.457 E35.45285 ; brim
G1 X98.670 Y89.181 E35.50590 ; brim
G1 X99.487 Y88.929 E35.56512 ; brim
G1 X99.778 Y88.859 E35.58586 ; brim
G1 X99.868 Y88.746 E35.59589 ; brim
G1 X100.461 Y89.144 F6000.000 ; move to first brim point
G1 F1500
G1 X100.461 Y82.174 E36.07886 ; brim
G1 X101.630 Y81.005 E36.19338 ; brim
G1 X107.283 Y81.005 E36.58506 ; brim
G1 X108.451 Y82.174 E36.69958 ; brim
G1 X108.451 Y94.576 E37.55898 ; brim
G1 X107.283 Y95.745 E37.67350 ; brim
G1 X102.502 Y95.745 E38.00476 ; brim
G1 X102.104 Y95.762 E38.03238 ; brim
G1 X101.748 Y95.806 E38.05719 ; brim
G1 X101.398 Y95.881 E38.08203 ; brim
G1 X101.055 Y95.984 E38.10686 ; brim
G1 X100.722 Y96.117 E38.13169 ; brim
G1 X100.401 Y96.277 E38.15653 ; brim
G1 X100.095 Y96.463 E38.18136 ; brim
G1 X99.796 Y96.682 E38.20705 ; brim
G1 X99.504 Y96.936 E38.23388 ; brim
G1 X99.451 Y97.051 E38.24265 ; brim
G1 X99.451 Y102.949 E38.65128 ; brim
G1 X99.504 Y103.064 E38.66005 ; brim
G1 X99.805 Y103.326 E38.68776 ; brim
G1 X100.095 Y103.537 E38.71259 ; brim
G1 X100.401 Y103.724 E38.73743 ; brim
G1 X100.722 Y103.883 E38.76226 ; brim
G1 X101.055 Y104.016 E38.78710 ; brim
G1 X101.398 Y104.119 E38.81193 ; brim
G1 X101.749 Y104.194 E38.83676 ; brim
G1 X102.104 Y104.239 E38.86160 ; brim
G1 X102.499 Y104.255 E38.88896 ; brim
G1 X107.283 Y104.255 E39.22044 ; brim
G1 X108.451 Y105.424 E39.33495 ; brim
G1 X108.451 Y117.826 E40.19436 ; brim
G1 X107.283 Y118.995 E40.30887 ; brim
G1 X101.630 Y118.995 E40.70056 ; brim
G1 X100.461 Y117.826 E40.81507 ; brim
G1 X100.461 Y110.856 E41.29805 ; brim
G1 X100.333 Y110.696 E41.31223 ; brim
G1 X99.666 Y110.544 E41.35966 ; brim
G1 X98.889 Y110.307 E41.41597 ; brim
G1 X98.175 Y110.032 E41.46895 ; brim
G1 X97.413 Y109.671 E41.52740 ; brim
G1 X96.768 Y109.307 E41.57871 ; brim
