; generated by Slic3r 1.3.1-dev on 2019-03-10 at 17:48:21

; external perimeters extrusion width = 0.30mm (1.80mm^3/s)
; perimeters extrusion width = 0.30mm (1.80mm^3/s)
; infill extrusion width = 0.60mm (3.90mm^3/s)
; solid infill extrusion width = 0.60mm (3.90mm^3/s)
; top infill extrusion width = 0.45mm (2.85mm^3/s)
; support material extrusion width = 0.60mm (3.90mm^3/s)

M107 ; disable fan
M190 S70 ; set bed temperature and wait for it to be reached
M104 S220 ; set temperature
G28 ; home all axes
G1 Z5 F5000 ; lift nozzle

; Filament gcode

M109 S220 ; set temperature and wait for it to be reached
G21 ; set units to millimeters
G90 ; use absolute coordinates
M82 ; use absolute distances for extrusion
G92 E0 ; reset extrusion distance
G1 Z0.300 F6000.000 ; move to next layer (0)
G1 E-2.00000 F9000.00000 ; retract extruder 0
G92 E0 ; reset extrusion distance
G1 X75.392 Y77.968 F6000.000 ; move to first skirt point
G1 E2.00000 F9000.00000 ; unretract extruder 0
G1 F1500
G1 X77.755 Y76.407 E2.18915 ; skirt
G1 X79.646 Y75.733 E2.32328 ; skirt
G1 X81.110 Y75.370 E2.42406 ; skirt
G1 X81.678 Y75.247 E2.46286 ; skirt
G1 X96.374 Y72.495 E3.46173 ; skirt
G1 X97.050 Y72.388 E3.50744 ; skirt
G1 X97.737 Y72.312 E3.55357 ; skirt
G1 X99.234 Y72.197 E3.65387 ; skirt
G1 X100.000 Y72.168 E3.70510 ; skirt
G1 X101.084 Y72.195 E3.77756 ; skirt
G1 X101.795 Y72.246 E3.82515 ; skirt
G1 X102.950 Y72.388 E3.90289 ; skirt
G1 X119.619 Y75.217 E5.03243 ; skirt
G1 X122.316 Y76.079 E5.22158 ; skirt
G1 X124.667 Y77.658 E5.41074 ; skirt
G1 X126.485 Y79.828 E5.59989 ; skirt
G1 X127.627 Y82.419 E5.78905 ; skirt
G1 X128.004 Y85.146 E5.97296 ; skirt
G1 X128.004 Y117.485 E8.13341 ; skirt
G1 X127.606 Y120.289 E8.32256 ; skirt
G1 X126.443 Y122.871 E8.51172 ; skirt
G1 X124.608 Y125.027 E8.70087 ; skirt
G1 X122.245 Y126.587 E8.89003 ; skirt
G1 X119.792 Y127.384 E9.06231 ; skirt
G1 X118.328 Y127.659 E9.16184 ; skirt
G1 X116.640 Y127.830 E9.27516 ; skirt
G1 X92.214 Y128.248 E10.90719 ; skirt
G1 X85.958 Y128.250 E11.32515 ; skirt
G1 X84.249 Y128.103 E11.43974 ; skirt
G1 X81.823 Y127.686 E11.60419 ; skirt
G1 X80.208 Y127.384 E11.71395 ; skirt
G1 X77.526 Y126.475 E11.90311 ; skirt
G1 X75.204 Y124.855 E12.09226 ; skirt
G1 X73.424 Y122.653 E12.28142 ; skirt
G1 X72.327 Y120.043 E12.47057 ; skirt
G1 X71.996 Y117.485 E12.64286 ; skirt
G1 X71.996 Y85.509 E14.77908 ; skirt
G1 X72.394 Y82.705 E14.96823 ; skirt
G1 X73.557 Y80.124 E15.15739 ; skirt
G1 X75.353 Y78.013 E15.34253 ; skirt
G1 X75.917 Y78.222 F6000.000 ; move to first skirt point
G1 F1500
G1 X78.256 Y76.768 E15.52656 ; skirt
G1 X79.775 Y76.253 E15.63370 ; skirt
G1 X81.239 Y75.890 E15.73447 ; skirt
G1 X81.777 Y75.773 E15.77121 ; skirt
G1 X96.473 Y73.021 E16.77008 ; skirt
G1 X97.128 Y72.918 E16.81435 ; skirt
G1 X97.777 Y72.846 E16.85802 ; skirt
G1 X99.274 Y72.731 E16.95833 ; skirt
G1 X100.000 Y72.704 E17.00683 ; skirt
G1 X101.046 Y72.729 E17.07670 ; skirt
G1 X101.756 Y72.780 E17.12429 ; skirt
G1 X102.873 Y72.918 E17.19944 ; skirt
G1 X119.530 Y75.745 E18.32814 ; skirt
G1 X122.150 Y76.594 E18.51217 ; skirt
G1 X124.419 Y78.157 E18.69620 ; skirt
G1 X126.146 Y80.302 E18.88023 ; skirt
G1 X127.188 Y82.853 E19.06426 ; skirt
G1 X127.468 Y85.146 E19.21861 ; skirt
G1 X127.468 Y117.485 E21.37906 ; skirt
G1 X127.070 Y120.211 E21.56309 ; skirt
G1 X125.910 Y122.710 E21.74712 ; skirt
G1 X124.083 Y124.772 E21.93115 ; skirt
G1 X121.744 Y126.226 E22.11518 ; skirt
G1 X119.693 Y126.857 E22.25850 ; skirt
G1 X118.229 Y127.132 E22.35803 ; skirt
G1 X116.631 Y127.295 E22.46533 ; skirt
G1 X92.205 Y127.713 E24.09735 ; skirt
G1 X85.958 Y127.714 E24.51470 ; skirt
G1 X84.340 Y127.576 E24.62320 ; skirt
G1 X81.914 Y127.158 E24.78764 ; skirt
G1 X80.307 Y126.857 E24.89687 ; skirt
G1 X77.701 Y125.963 E25.08090 ; skirt
G1 X75.460 Y124.361 E25.26493 ; skirt
G1 X73.771 Y122.185 E25.44896 ; skirt
G1 X72.773 Y119.617 E25.63299 ; skirt
G1 X72.532 Y117.485 E25.77631 ; skirt
G1 X72.532 Y85.509 E27.91253 ; skirt
G1 X72.930 Y82.783 E28.09656 ; skirt
G1 X74.090 Y80.285 E28.28059 ; skirt
G1 X75.877 Y78.267 E28.46061 ; skirt
G1 E26.46061 F9000.00000 ; retract extruder 0
G92 E0 ; reset extrusion distance
G1 X79.620 Y101.554 F6000.000 ; move to first brim point
G1 E2.00000 F9000.00000 ; unretract extruder 0
G1 F1500
G1 X79.620 Y101.312 E2.01674 ; brim
G1 X77.851 Y99.542 E2.19018 ; brim
G1 X77.851 Y97.733 E2.31553 ; brim
G1 X77.541 Y96.956 E2.37353 ; brim
G1 X77.541 Y84.541 E3.23373 ; brim
G1 X78.183 Y82.991 E3.34998 ; brim
G1 X79.550 Y81.624 E3.48403 ; brim
G1 X81.100 Y80.982 E3.60028 ; brim
G1 X90.675 Y80.982 E4.26374 ; brim
G1 X90.757 Y80.957 E4.26963 ; brim
G1 X92.539 Y79.794 E4.41711 ; brim
G1 X93.525 Y79.247 E4.49521 ; brim
G1 X94.389 Y78.846 E4.56120 ; brim
G1 X95.288 Y78.501 E4.62797 ; brim
G1 X96.514 Y78.136 E4.71658 ; brim
G1 X97.059 Y78.028 E4.75511 ; brim
G1 X97.549 Y77.987 E4.78918 ; brim
G1 X104.066 Y77.987 E5.24075 ; brim
G1 X105.519 Y79.440 E5.38311 ; brim
G1 X105.626 Y79.484 E5.39115 ; brim
G1 X105.992 Y79.484 E5.41652 ; brim
G1 X106.597 Y79.573 E5.45886 ; brim
G1 X107.269 Y79.773 E5.50747 ; brim
G1 X107.824 Y80.030 E5.54982 ; brim
G1 X108.258 Y80.315 E5.58584 ; brim
G1 X108.624 Y80.588 E5.61746 ; brim
G1 X108.715 Y80.619 E5.62410 ; brim
G1 X118.900 Y80.619 E6.32982 ; brim
G1 X120.450 Y81.261 E6.44607 ; brim
G1 X121.817 Y82.629 E6.58012 ; brim
G1 X122.459 Y84.179 E6.69637 ; brim
G1 X122.459 Y98.453 E7.68544 ; brim
G1 X121.817 Y100.003 E7.80169 ; brim
G1 X120.625 Y101.195 E7.91852 ; brim
G1 X120.625 Y101.437 E7.93526 ; brim
G1 X121.817 Y102.629 E8.05209 ; brim
G1 X122.459 Y104.179 E8.16834 ; brim
G1 X122.459 Y118.453 E9.15741 ; brim
G1 X121.817 Y120.003 E9.27366 ; brim
G1 X120.450 Y121.371 E9.40771 ; brim
G1 X118.900 Y122.013 E9.52396 ; brim
G1 X103.571 Y122.013 E10.58611 ; brim
G1 X101.101 Y119.542 E10.82818 ; brim
G1 X101.101 Y117.733 E10.95353 ; brim
G1 X100.791 Y116.956 E11.01154 ; brim
G1 X100.791 Y112.193 E11.34155 ; brim
G1 X100.769 Y111.899 E11.36199 ; brim
G1 X100.714 Y111.751 E11.37287 ; brim
G1 X100.632 Y111.608 E11.38435 ; brim
G1 X100.500 Y111.533 E11.39491 ; brim
G1 X99.480 Y111.533 E11.46553 ; brim
G1 X99.332 Y111.633 E11.47794 ; brim
G1 X99.241 Y111.876 E11.49587 ; brim
G1 X99.209 Y112.081 E11.51029 ; brim
G1 X99.209 Y118.453 E11.95178 ; brim
G1 X98.567 Y120.003 E12.06803 ; brim
G1 X97.200 Y121.371 E12.20207 ; brim
G1 X95.650 Y122.013 E12.31832 ; brim
G1 X80.321 Y122.013 E13.38047 ; brim
G1 X77.851 Y119.542 E13.62255 ; brim
G1 X77.851 Y117.733 E13.74790 ; brim
G1 X77.541 Y116.956 E13.80591 ; brim
G1 X77.541 Y104.541 E14.66611 ; brim
G1 X78.183 Y102.991 E14.78236 ; brim
G1 X79.578 Y101.596 E14.91909 ; brim
G1 X80.603 Y101.509 F6000.000 ; move to first brim point
G1 F1500
G1 X78.406 Y99.312 E15.13433 ; brim
G1 X78.406 Y97.623 E15.25139 ; brim
G1 X78.096 Y96.845 E15.30940 ; brim
G1 X78.096 Y84.652 E16.15428 ; brim
G1 X78.654 Y83.306 E16.25522 ; brim
G1 X79.865 Y82.095 E16.37395 ; brim
G1 X81.211 Y81.537 E16.47488 ; brim
G1 X90.841 Y81.537 E17.14215 ; brim
G1 X90.922 Y81.513 E17.14805 ; brim
G1 X92.830 Y80.267 E17.30594 ; brim
G1 X93.772 Y79.745 E17.38057 ; brim
G1 X94.609 Y79.357 E17.44447 ; brim
G1 X95.480 Y79.022 E17.50915 ; brim
G1 X96.638 Y78.677 E17.59289 ; brim
G1 X97.135 Y78.579 E17.62794 ; brim
G1 X97.564 Y78.543 E17.65782 ; brim
G1 X103.836 Y78.543 E18.09241 ; brim
G1 X105.289 Y79.996 E18.23476 ; brim
G1 X105.396 Y80.040 E18.24280 ; brim
G1 X105.952 Y80.040 E18.28133 ; brim
G1 X106.477 Y80.117 E18.31810 ; brim
G1 X107.072 Y80.294 E18.36112 ; brim
G1 X107.554 Y80.517 E18.39789 ; brim
G1 X108.005 Y80.817 E18.43543 ; brim
G1 X108.436 Y81.144 E18.47295 ; brim
G1 X108.527 Y81.174 E18.47959 ; brim
G1 X118.789 Y81.174 E19.19065 ; brim
G1 X120.135 Y81.732 E19.29159 ; brim
G1 X121.346 Y82.943 E19.41032 ; brim
G1 X121.904 Y84.289 E19.51125 ; brim
G1 X121.904 Y98.342 E20.48501 ; brim
G1 X121.346 Y99.688 E20.58594 ; brim
G1 X120.135 Y100.900 E20.70467 ; brim
G1 X119.601 Y101.121 E20.74474 ; brim
G1 X119.601 Y101.511 E20.77174 ; brim
G1 X120.135 Y101.732 E20.81181 ; brim
G1 X121.346 Y102.943 E20.93054 ; brim
G1 X121.904 Y104.289 E21.03147 ; brim
G1 X121.904 Y118.342 E22.00523 ; brim
G1 X121.346 Y119.688 E22.10616 ; brim
G1 X120.135 Y120.900 E22.22489 ; brim
G1 X118.789 Y121.457 E22.32583 ; brim
G1 X103.801 Y121.457 E23.36437 ; brim
G1 X101.656 Y119.312 E23.57456 ; brim
G1 X101.656 Y117.623 E23.69162 ; brim
G1 X101.346 Y116.845 E23.74963 ; brim
G1 X101.346 Y112.175 E24.07322 ; brim
G1 X101.311 Y111.759 E24.10218 ; brim
G1 X101.227 Y111.535 E24.11873 ; brim
G1 X101.044 Y111.236 E24.14301 ; brim
G1 X100.865 Y111.030 E24.16196 ; brim
G1 X100.749 Y110.977 E24.17073 ; brim
G1 X99.146 Y110.977 E24.28184 ; brim
G1 X99.039 Y111.022 E24.28988 ; brim
G1 X98.926 Y111.151 E24.30175 ; brim
G1 X98.703 Y111.736 E24.34517 ; brim
G1 X98.649 Y112.075 E24.36891 ; brim
G1 X98.654 Y118.342 E24.80319 ; brim
G1 X98.096 Y119.688 E24.90413 ; brim
G1 X96.885 Y120.900 E25.02286 ; brim
G1 X95.539 Y121.457 E25.12379 ; brim
G1 X80.551 Y121.457 E26.16234 ; brim
G1 X78.406 Y119.312 E26.37253 ; brim
G1 X78.406 Y117.623 E26.48959 ; brim
G1 X78.096 Y116.845 E26.54760 ; brim
G1 X78.096 Y104.652 E27.39248 ; brim
G1 X78.654 Y103.306 E27.49342 ; brim
G1 X79.865 Y102.095 E27.61215 ; brim
G1 X80.542 Y101.814 E27.66289 ; brim
G1 X80.591 Y101.567 E27.68033 ; brim
G1 E25.68033 F9000.00000 ; retract extruder 0
G92 E0 ; reset extrusion distance
G1 X92.111 Y100.901 F6000.000 ; move to first brim point
G1 E2.00000 F9000.00000 ; unretract extruder 0
G1 F1500
G1 X80.781 Y100.901 E2.78508 ; brim
G1 X78.962 Y99.082 E2.96338 ; brim
G1 X78.962 Y97.512 E3.07215 ; brim
G1 X78.652 Y96.735 E3.13016 ; brim
G1 X78.652 Y84.762 E3.95973 ; brim
G1 X79.125 Y83.621 E4.04535 ; brim
G1 X80.180 Y82.566 E4.14877 ; brim
G1 X81.321 Y82.093 E4.23439 ; brim
G1 X91.230 Y82.093 E4.92095 ; brim
G1 X91.380 Y81.988 E4.93367 ; brim
G1 X91.433 Y81.843 E4.94437 ; brim
G1 X93.122 Y80.740 E5.08408 ; brim
G1 X94.070 Y80.217 E5.15912 ; brim
G1 X94.891 Y79.841 E5.22170 ; brim
G1 X95.789 Y79.503 E5.28819 ; brim
G1 X96.763 Y79.219 E5.35850 ; brim
G1 X97.210 Y79.130 E5.39007 ; brim
G1 X97.579 Y79.099 E5.41577 ; brim
G1 X103.606 Y79.099 E5.83337 ; brim
G1 X105.059 Y80.551 E5.97572 ; brim
G1 X105.166 Y80.596 E5.98376 ; brim
G1 X105.912 Y80.596 E6.03544 ; brim
G1 X106.357 Y80.660 E6.06663 ; brim
G1 X106.875 Y80.815 E6.10408 ; brim
G1 X107.284 Y81.004 E6.13527 ; brim
G1 X107.680 Y81.267 E6.16827 ; brim
G1 X108.249 Y81.699 E6.21774 ; brim
G1 X108.340 Y81.730 E6.22438 ; brim
G1 X118.679 Y81.730 E6.94079 ; brim
G1 X119.820 Y82.203 E7.02641 ; brim
G1 X120.875 Y83.258 E7.12982 ; brim
G1 X121.348 Y84.400 E7.21544 ; brim
G1 X121.348 Y98.232 E8.17388 ; brim
G1 X120.875 Y99.373 E8.25950 ; brim
G1 X119.820 Y100.429 E8.36292 ; brim
G1 X118.679 Y100.901 E8.44854 ; brim
G1 X107.856 Y100.901 E9.19842 ; brim
G1 X107.723 Y101.298 E9.22743 ; brim
G1 X108.249 Y101.699 E9.27329 ; brim
G1 X108.340 Y101.730 E9.27993 ; brim
G1 X118.679 Y101.730 E9.99633 ; brim
G1 X119.820 Y102.203 E10.08195 ; brim
G1 X120.875 Y103.258 E10.18537 ; brim
G1 X121.348 Y104.400 E10.27099 ; brim
G1 X121.348 Y118.232 E11.22943 ; brim
G1 X120.875 Y119.373 E11.31505 ; brim
G1 X119.820 Y120.429 E11.41847 ; brim
G1 X118.679 Y120.901 E11.50409 ; brim
G1 X104.031 Y120.901 E12.51903 ; brim
G1 X102.212 Y119.082 E12.69733 ; brim
G1 X102.212 Y117.512 E12.80610 ; brim
G1 X101.902 Y116.735 E12.86411 ; brim
G1 X101.902 Y112.163 E13.18086 ; brim
G1 X101.853 Y111.619 E13.21876 ; brim
G1 X101.729 Y111.296 E13.24267 ; brim
G1 X101.580 Y111.028 E13.26396 ; brim
G1 X101.479 Y110.889 E13.27589 ; brim
G1 X101.117 Y110.474 E13.31399 ; brim
G1 X101.002 Y110.422 E13.32275 ; brim
G1 X98.916 Y110.422 E13.46733 ; brim
G1 X98.809 Y110.466 E13.47537 ; brim
G1 X98.453 Y110.839 E13.51109 ; brim
G1 X98.164 Y111.597 E13.56730 ; brim
G1 X98.079 Y112.151 E13.60612 ; brim
G1 X98.098 Y112.248 E13.61296 ; brim
G1 X98.098 Y118.232 E14.02759 ; brim
G1 X97.625 Y119.373 E14.11321 ; brim
G1 X96.570 Y120.429 E14.21662 ; brim
G1 X95.429 Y120.901 E14.30225 ; brim
G1 X80.781 Y120.901 E15.31719 ; brim
G1 X78.962 Y119.082 E15.49549 ; brim
G1 X78.962 Y117.512 E15.60426 ; brim
G1 X78.652 Y116.735 E15.66227 ; brim
G1 X78.652 Y104.762 E16.49184 ; brim
G1 X79.125 Y103.621 E16.57746 ; brim
G1 X80.180 Y102.566 E16.68087 ; brim
G1 X81.321 Y102.093 E16.76650 ; brim
G1 X91.230 Y102.093 E17.45306 ; brim
G1 X91.380 Y101.988 E17.46578 ; brim
G1 X91.433 Y101.843 E17.47648 ; brim
G1 X92.235 Y101.318 E17.54287 ; brim
G1 X92.128 Y100.959 E17.56885 ; brim
G1 E15.56885 F9000.00000 ; retract extruder 0
G92 E0 ; reset extrusion distance
G1 X94.069 Y100.346 F6000.000 ; move to first brim point
G1 E2.00000 F9000.00000 ; unretract extruder 0
G1 F1500
G1 X81.011 Y100.346 E2.90480 ; brim
G1 X79.517 Y98.852 E3.05121 ; brim
G1 X79.517 Y97.402 E3.15169 ; brim
G1 X79.207 Y96.624 E3.20970 ; brim
G1 X79.207 Y93.856 E3.40153 ; brim
G1 X79.230 Y93.801 E3.40565 ; brim
G1 X79.230 Y93.685 E3.41369 ; brim
G1 X79.207 Y93.630 E3.41780 ; brim
G1 X79.207 Y90.861 E3.60963 ; brim
G1 X79.230 Y90.807 E3.61375 ; brim
G1 X79.230 Y90.691 E3.62179 ; brim
G1 X79.207 Y90.636 E3.62590 ; brim
G1 X79.207 Y87.867 E3.81773 ; brim
G1 X79.230 Y87.812 E3.82184 ; brim
G1 X79.230 Y87.696 E3.82988 ; brim
G1 X79.207 Y87.642 E3.83400 ; brim
G1 X79.207 Y84.873 E4.02583 ; brim
G1 X79.596 Y83.936 E4.09614 ; brim
G1 X80.495 Y83.037 E4.18424 ; brim
G1 X81.432 Y82.648 E4.25455 ; brim
G1 X91.618 Y82.648 E4.96034 ; brim
G1 X91.768 Y82.543 E4.97307 ; brim
G1 X91.892 Y82.207 E4.99789 ; brim
G1 X93.413 Y81.213 E5.12378 ; brim
G1 X94.267 Y80.740 E5.19145 ; brim
G1 X95.101 Y80.355 E5.25514 ; brim
G1 X95.962 Y80.031 E5.31885 ; brim
G1 X96.888 Y79.760 E5.38568 ; brim
G1 X97.285 Y79.680 E5.41376 ; brim
G1 X97.595 Y79.654 E5.43529 ; brim
G1 X103.376 Y79.654 E5.83589 ; brim
G1 X104.829 Y81.107 E5.97825 ; brim
G1 X104.936 Y81.151 E5.98629 ; brim
G1 X105.872 Y81.151 E6.05112 ; brim
G1 X106.237 Y81.204 E6.07674 ; brim
G1 X106.678 Y81.336 E6.10860 ; brim
G1 X107.013 Y81.491 E6.13422 ; brim
G1 X107.356 Y81.718 E6.16267 ; brim
G1 X108.057 Y82.253 E6.22379 ; brim
G1 X108.150 Y82.286 E6.23062 ; brim
G1 X118.568 Y82.286 E6.95250 ; brim
G1 X119.505 Y82.674 E7.02281 ; brim
G1 X120.404 Y83.573 E7.11091 ; brim
G1 X120.793 Y84.510 E7.18122 ; brim
G1 X120.793 Y86.144 E7.29445 ; brim
G1 X120.770 Y86.199 E7.29856 ; brim
G1 X120.770 Y86.315 E7.30660 ; brim
G1 X120.793 Y86.370 E7.31071 ; brim
G1 X120.793 Y89.139 E7.50255 ; brim
G1 X120.770 Y89.193 E7.50666 ; brim
G1 X120.770 Y89.309 E7.51470 ; brim
G1 X120.793 Y89.364 E7.51881 ; brim
G1 X120.793 Y92.133 E7.71065 ; brim
G1 X120.770 Y92.188 E7.71476 ; brim
G1 X120.770 Y92.304 E7.72280 ; brim
G1 X120.793 Y92.358 E7.72691 ; brim
G1 X120.793 Y95.127 E7.91875 ; brim
G1 X120.770 Y95.182 E7.92286 ; brim
G1 X120.770 Y95.298 E7.93090 ; brim
G1 X120.793 Y95.353 E7.93501 ; brim
G1 X120.793 Y98.121 E8.12685 ; brim
G1 X120.404 Y99.059 E8.19715 ; brim
G1 X119.505 Y99.958 E8.28525 ; brim
G1 X118.568 Y100.346 E8.35556 ; brim
G1 X104.577 Y100.346 E9.32502 ; brim
G1 X104.428 Y100.706 E9.35203 ; brim
G1 X104.829 Y101.107 E9.39130 ; brim
G1 X104.936 Y101.151 E9.39934 ; brim
G1 X105.872 Y101.151 E9.46418 ; brim
G1 X106.237 Y101.204 E9.48979 ; brim
G1 X106.678 Y101.336 E9.52165 ; brim
G1 X107.013 Y101.491 E9.54727 ; brim
G1 X107.356 Y101.718 E9.57572 ; brim
G1 X108.057 Y102.253 E9.63684 ; brim
G1 X108.150 Y102.286 E9.64367 ; brim
G1 X118.568 Y102.286 E10.36555 ; brim
G1 X119.505 Y102.674 E10.43586 ; brim
G1 X120.404 Y103.573 E10.52396 ; brim
G1 X120.793 Y104.510 E10.59427 ; brim
G1 X120.793 Y106.144 E10.70750 ; brim
G1 X120.770 Y106.199 E10.71161 ; brim
G1 X120.770 Y106.315 E10.71965 ; brim
G1 X120.793 Y106.370 E10.72376 ; brim
G1 X120.793 Y109.139 E10.91560 ; brim
G1 X120.770 Y109.193 E10.91971 ; brim
G1 X120.770 Y109.309 E10.92775 ; brim
G1 X120.793 Y109.364 E10.93186 ; brim
G1 X120.793 Y112.133 E11.12370 ; brim
G1 X120.770 Y112.188 E11.12781 ; brim
G1 X120.770 Y112.304 E11.13585 ; brim
G1 X120.793 Y112.358 E11.13996 ; brim
G1 X120.793 Y115.127 E11.33180 ; brim
